cfgov/unprocessed/apps/teachers-digital-platform/img/star.svg

<svg height="19" viewBox="0 0 20 19" width="20" xmlns="http://www.w3.org/2000/svg"><path d="m89.8914224 383.926988.9360328 4.673437c.2586955 1.292506-.475666 1.82082-1.6342326 1.179395l-4.1933712-2.328442-4.1919804 2.328442c-1.1585666.641425-1.894319.113111-1.6356234-1.179395l.4659301-2.325683.4701027-2.347754-1.7719254-1.624944-1.7552353-1.61115c-.9749762-.892477-.6940273-1.751849.6244855-1.906343l2.3755482-.27864 2.3964108-.2814 2.0125401-4.328585c.5549436-1.194568 1.4645505-1.194568 2.020885 0l2.01254 4.328585 2.39502.2814 2.3755483.27864c1.3185127.154494 1.5994616 1.013866.6258763 1.906343l-1.7566262 1.61115z" fill="#ffb858" fill-rule="evenodd" stroke="#dc731c" transform="translate(-75 -372)"/></svg>

<?xml version="1.0" encoding="UTF-8"?>
<svg width="20px" height="19px" viewBox="0 0 20 19" version="1.1" xmlns="http://www.w3.org/2000/svg" xmlns:xlink="http://www.w3.org/1999/xlink">
    <title>Fill 223 Copy 3</title>
    <g id="Designs---r3.0" stroke="none" stroke-width="1" fill="none" fill-rule="evenodd">
        <g id="Design:-Results-page---3.0" transform="translate(-75.000000, -372.000000)" fill="#FFB858" stroke="#DC731C">
            <path d="M89.8914224,383.926988 L90.8274552,388.600425 C91.0861507,389.892931 90.3517892,390.421245 89.1932226,389.77982 L84.9998514,387.451378 L80.807871,389.77982 C79.6493044,390.421245 78.913552,389.892931 79.1722476,388.600425 L79.6381777,386.274742 L80.1082804,383.926988 L78.336355,382.302044 L76.5811197,380.690894 C75.6061435,379.798417 75.8870924,378.939045 77.2056052,378.784551 L79.5811534,378.505911 L81.9775642,378.224511 L83.9901043,373.895926 C84.5450479,372.701358 85.4546548,372.701358 86.0109893,373.895926 L88.0235293,378.224511 L90.4185493,378.505911 L92.7940976,378.784551 C94.1126103,378.939045 94.3935592,379.798417 93.4199739,380.690894 L91.6633477,382.302044 L89.8914224,383.926988 Z" id="Fill-223-Copy-3"></path>
        </g>
    </g>
</svg>
